public/static/icons/ic_flags_kr.svg

<svg height="20" viewBox="0 0 28 20" width="28" xmlns="http://www.w3.org/2000/svg" xmlns:xlink="http://www.w3.org/1999/xlink"><defs><rect id="a" height="20" rx="3" width="28"/><circle id="b" cx="4.667" cy="4.667" r="4.667"/><mask id="c" fill="#fff"><use fill="#fff" fill-rule="evenodd" xlink:href="#a"/></mask><mask id="d" fill="#fff"><use fill="#fff" fill-rule="evenodd" xlink:href="#b"/></mask></defs><g fill="none" fill-rule="evenodd"><use fill="#fff" xlink:href="#a"/><g mask="url(#c)"><g transform="translate(9.333 5.333)"><use fill="#e01b41" xlink:href="#b"/><path d="m0 5.33333333c1.3333333 1.24999998 3.33333333 2 4.66666667 0 1.33333333-2 4-2.00000007 4.66666666 0 .66666667 2.00000008 0 4 0 4h-9.33333333s-1.3333333-5.24999997 0-4z" fill="#0e4b9c" mask="url(#d)"/></g></g><path d="m22.7969332 12.7695107.5719411.3302103c.1609246.0929099.2154196.299795.1208609.4635755l-1.6589623 2.873407c-.094175.1631158-.294092.2240023-.4618986.1271192l-.5719411-.3302104c-.1609246-.0929099-.2154195-.299795-.1208608-.4635755l1.6589622-2.8734069c.094175-.1631159.2940921-.2240024.4618986-.1271192zm-17.13196782.1271192 1.65896225 2.8734069c.09417497.1631158.04694569.3666924-.12086083.4635755l-.57194114.3302104c-.16092456.0929098-.36733986.0366613-.46189857-.1271192l-1.65896225-2.873407c-.09417498-.1631158-.04694569-.3666923.12086082-.4635755l.57194114-.3302103c.16092456-.0929099.36733986-.0366613.46189858.1271192zm15.39991702-1.1271192.5719411.3302103c.1609246.0929099.2154196.299795.1208609.4635755l-1.6589623 2.873407c-.094175.1631158-.2940921.2240023-.4618986.1271192l-.5719411-.3302104c-.1609246-.0929099-.2154195-.299795-.1208608-.4635755l1.6589622-2.8734069c.094175-.1631159.2940921-.2240024.4618986-.1271192zm-13.66786622.1271192 1.65896225 2.8734069c.09417498.1631158.04694569.3666924-.12086082.4635755l-.57194114.3302104c-.16092456.0929098-.36733986.0366613-.46189858-.1271192l-1.65896225-2.873407c-.09417497-.1631158-.04694569-.3666923.12086083-.4635755l.57194114-.3302103c.16092456-.0929099.36733986-.0366613.46189857.1271192zm.96616029-7.46045256.57194114.33021037c.16092456.09290984.21541954.299795.12086082.4635755l-1.65896225 2.87340691c-.09417497.16311584-.29409206.22400234-.46189857.1271192l-.57194114-.33021036c-.16092456-.09290984-.21541954-.29979501-.12086083-.46357551l1.65896225-2.8734069c.09417498-.16311584.29409206-.22400235.46189858-.12711921zm11.73554563.12711921 1.6589623 2.8734069c.0941749.16311584.0469456.36669237-.1208609.46357551l-.5719411.33021036c-.1609246.09290985-.3673399.0366613-.4618986-.1271192l-1.6589622-2.87340691c-.094175-.16311584-.0469457-.36669236.1208608-.4635755l.5719411-.33021037c.1609246-.09290984.3673399-.03666129.4618986.12711921zm-13.46759644-1.12711921.57194114.33021037c.16092456.09290984.21541954.299795.12086083.4635755l-1.65896225 2.87340691c-.09417498.16311584-.29409206.22400234-.46189858.1271192l-.57194114-.33021036c-.16092456-.09290984-.21541954-.29979501-.12086082-.46357551l1.65896225-2.8734069c.09417497-.16311584.29409206-.22400235.46189857-.12711921zm15.19964724.12711921 1.6589623 2.8734069c.0941749.16311584.0469457.36669237-.1208609.46357551l-.5719411.33021036c-.1609246.09290985-.3673399.0366613-.4618986-.1271192l-1.6589622-2.87340691c-.094175-.16311584-.0469457-.36669236.1208608-.4635755l.5719411-.33021037c.1609246-.09290984.3673399-.03666129.4618986.12711921z" fill="#262626" mask="url(#c)" opacity=".75"/></g></svg>

<svg xmlns="http://www.w3.org/2000/svg" xmlns:xlink="http://www.w3.org/1999/xlink" width="28" height="20" viewBox="0 0 28 20">
  <defs>
    <rect id="ic_flags_kr-a" width="28" height="20" x="0" y="0" rx="3"/>
    <circle id="ic_flags_kr-c" cx="4.667" cy="4.667" r="4.667"/>
  </defs>
  <g fill="none" fill-rule="evenodd">
    <mask id="ic_flags_kr-b" fill="#fff">
      <use xlink:href="#ic_flags_kr-a"/>
    </mask>
    <use fill="#FFF" xlink:href="#ic_flags_kr-a"/>
    <g mask="url(#ic_flags_kr-b)">
      <g transform="translate(9.333 5.333)">
        <mask id="ic_flags_kr-d" fill="#fff">
          <use xlink:href="#ic_flags_kr-c"/>
        </mask>
        <use fill="#E01B41" xlink:href="#ic_flags_kr-c"/>
        <path fill="#0E4B9C" d="M-2.18713936e-14,5.33333333 C1.3333333,6.58333331 3.33333333,7.33333333 4.66666667,5.33333333 C6,3.33333333 8.66666667,3.33333326 9.33333333,5.33333333 C10,7.33333341 9.33333333,9.33333333 9.33333333,9.33333333 L-2.18713936e-14,9.33333333 C-2.18713936e-14,9.33333333 -1.3333333,4.08333336 -2.18713936e-14,5.33333333 Z" mask="url(#ic_flags_kr-d)"/>
      </g>
    </g>
    <path fill="#262626" d="M22.7969332,12.7695107 L23.3688743,13.099721 C23.5297989,13.1926309 23.5842939,13.399516 23.4897352,13.5632965 L21.8307729,16.4367035 C21.7365979,16.5998193 21.5366809,16.6607058 21.3688743,16.5638227 L20.7969332,16.2336123 C20.6360086,16.1407024 20.5815137,15.9338173 20.6760724,15.7700368 L22.3350346,12.8966299 C22.4292096,12.733514 22.6291267,12.6726275 22.7969332,12.7695107 Z M5.66496538,12.8966299 L7.32392763,15.7700368 C7.4181026,15.9331526 7.37087332,16.1367292 7.2030668,16.2336123 L6.63112566,16.5638227 C6.4702011,16.6567325 6.2637858,16.600484 6.16922709,16.4367035 L4.51026484,13.5632965 C4.41608986,13.4001807 4.46331915,13.1966042 4.63112566,13.099721 L5.2030668,12.7695107 C5.36399136,12.6766008 5.57040666,12.7328494 5.66496538,12.8966299 Z M21.0648824,11.7695107 L21.6368235,12.099721 C21.7977481,12.1926309 21.8522431,12.399516 21.7576844,12.5632965 L20.0987221,15.4367035 C20.0045471,15.5998193 19.80463,15.6607058 19.6368235,15.5638227 L19.0648824,15.2336123 C18.9039578,15.1407024 18.8494629,14.9338173 18.9440216,14.7700368 L20.6029838,11.8966299 C20.6971588,11.733514 20.8970759,11.6726275 21.0648824,11.7695107 Z M7.39701618,11.8966299 L9.05597843,14.7700368 C9.15015341,14.9331526 9.10292412,15.1367292 8.93511761,15.2336123 L8.36317647,15.5638227 C8.20225191,15.6567325 7.99583661,15.600484 7.90127789,15.4367035 L6.24231564,12.5632965 C6.14814067,12.4001807 6.19536995,12.1966042 6.36317647,12.099721 L6.93511761,11.7695107 C7.09604217,11.6766008 7.30245747,11.7328494 7.39701618,11.8966299 Z M8.36317647,4.43617734 L8.93511761,4.76638771 C9.09604217,4.85929755 9.15053715,5.06618271 9.05597843,5.22996321 L7.39701618,8.10337012 C7.30284121,8.26648596 7.10292412,8.32737246 6.93511761,8.23048932 L6.36317647,7.90027896 C6.20225191,7.80736912 6.14775693,7.60048395 6.24231564,7.43670345 L7.90127789,4.56329655 C7.99545287,4.40018071 8.19536995,4.3392942 8.36317647,4.43617734 Z M20.0987221,4.56329655 L21.7576844,7.43670345 C21.8518593,7.59981929 21.80463,7.80339582 21.6368235,7.90027896 L21.0648824,8.23048932 C20.9039578,8.32339917 20.6975425,8.26715062 20.6029838,8.10337012 L18.9440216,5.22996321 C18.8498466,5.06684737 18.8970759,4.86327085 19.0648824,4.76638771 L19.6368235,4.43617734 C19.7977481,4.3432675 20.0041634,4.39951605 20.0987221,4.56329655 Z M6.63112566,3.43617734 L7.2030668,3.76638771 C7.36399136,3.85929755 7.41848634,4.06618271 7.32392763,4.22996321 L5.66496538,7.10337012 C5.5707904,7.26648596 5.37087332,7.32737246 5.2030668,7.23048932 L4.63112566,6.90027896 C4.4702011,6.80736912 4.41570612,6.60048395 4.51026484,6.43670345 L6.16922709,3.56329655 C6.26340206,3.40018071 6.46331915,3.3392942 6.63112566,3.43617734 Z M21.8307729,3.56329655 L23.4897352,6.43670345 C23.5839101,6.59981929 23.5366809,6.80339582 23.3688743,6.90027896 L22.7969332,7.23048932 C22.6360086,7.32339917 22.4295933,7.26715062 22.3350346,7.10337012 L20.6760724,4.22996321 C20.5818974,4.06684737 20.6291267,3.86327085 20.7969332,3.76638771 L21.3688743,3.43617734 C21.5297989,3.3432675 21.7362142,3.39951605 21.8307729,3.56329655 Z" mask="url(#ic_flags_kr-b)" opacity=".75"/>
  </g>
</svg>
